X: 113204
T: CAPTAIN KEELER
Q: "Reel."
R:  Reel.
%R: reel
B: James Kerr "Merry Melodies" v.1 p.13 s.2 #4
Z: 2017 John Chambers <jc:trillian.mit.edu>
M: C
L: 1/8
K: Bb	% and Gm
A |\
B2 (dcB) fBbB | B2 (3(dcB) AFcA |\
B2 (3(dcB) fBbB | cAFA BG G :|\
B |\
DGBG dGBG | DGBG AFcA |
DGBG dGBG | cAFA BGGB |\
DGBG dGBG | DGBG AFcA |\
Bcde fgfd | cAFA BG G |]

%%sep 1 1 500
%%sep 1 1 500

